static/icons/wordpress-logo.svg

<svg height="44" viewBox="0 0 44 44" width="44" xmlns="http://www.w3.org/2000/svg"><g fill="#fff" transform=""><path d="m3.23858333 22.0238333c0 7.4350834 4.32116667 13.8618334 10.58749997 16.9060834l-8.9613333-24.552c-1.07409108 2.4054754-1.62823007 5.0106159-1.62616667 7.645"/><path d="m34.705 21.076c0-2.3219167-.8341667-3.92975-1.54825-5.181-.9515-1.54825-1.84525-2.85725-1.84525-4.4055 0-1.727 1.3099167-3.33391667 3.1551667-3.33391667.0825 0 .16225.00916667.2429166.01466667-3.4597963-3.17771035-7.9880918-4.93811426-12.68575-4.93166667-6.5633333 0-12.33649997 3.36691667-15.69516663 8.46633337.44.0146666.85616666.0229166 1.20816666.0229166 1.96533334 0 5.00683337-.2383333 5.00683337-.2383333 1.0129166-.0595833 1.1320833 1.4281667.121 1.54825 0 0-1.0184167.1191667-2.1505.1778333l6.8401666 20.3490834 4.1121667-12.3291667-2.9269167-8.0199167c-1.012-.0595833-1.9708333-.1778333-1.9708333-.1778333-1.012-.0605-.8928333-1.6078333.1191667-1.5491667 0 0 3.1029166.23925 4.9481666.23925 1.9644167 0 5.0068334-.2383333 5.0068334-.2383333 1.0129166-.0595833 1.1320833 1.4281667.1200833 1.54825 0 0-1.0193333.1191667-2.1495833.1778333l6.7888333 20.1941667 1.8736667-6.2608333c.81125-2.5996667 1.43-4.4650834 1.43-6.0729167"/><path d="m22.3538333 23.6665-5.6375 16.379c3.7847081 1.115459 7.8246003 1.0105809 11.5463334-.29975-.0520097-.0822795-.0970819-.1687446-.13475-.2585z"/><path d="m38.5091667 13.0111667c.07975.5985833.1255833 1.24025.1255833 1.9323333 0 1.9048333-.3575 4.048-1.4281667 6.7283333l-5.7383333 16.5889167c5.58525-3.256 9.3408333-9.3069167 9.3408333-16.2369167 0-3.2660833-.8341666-6.3369166-2.3008333-9.0126666"/><path d="m22.0238333 42.9183333c-11.5206666 0-20.8935833-9.3738333-20.8935833-20.8945 0-11.5206666 9.3729167-20.8935833 20.8935833-20.8935833 11.5215834 0 20.8945 9.3729167 20.8945 20.8935833 0 11.5206667-9.3729166 20.8945-20.8945 20.8945m0-42.79366663c-12.0743333.00091666-21.89824997 9.82391666-21.89824997 21.89916663 0 12.07525 9.82391667 21.8991667 21.89916667 21.8991667 12.0743333 0 21.89825-9.8239167 21.89825-21.8991667 0-12.07524997-9.8239167-21.89824997-21.8991667-21.89824997"/></g></svg>

<?xml version="1.0" encoding="UTF-8"?>
<svg width="44px" height="44px" viewBox="0 0 44 44" version="1.1" xmlns="http://www.w3.org/2000/svg" xmlns:xlink="http://www.w3.org/1999/xlink">
    <!-- Generator: Sketch 49.1 (51147) - http://www.bohemiancoding.com/sketch -->
    <title>wordpress-logo</title>
    <desc>Created with Sketch.</desc>
    <defs></defs>
    <g id="Screens" stroke="none" stroke-width="1" fill="none" fill-rule="evenodd">
        <g id="Services" transform="translate(-1292.000000, -1245.000000)" fill="#FFFFFF" fill-rule="nonzero">
            <g id="cards" transform="translate(160.000000, 1060.000000)">
                <g id="Group-2" transform="translate(1008.000000, 115.000000)">
                    <g id="wordpress-logo" transform="translate(124.000000, 70.000000)">
                        <path d="M3.23858333,22.0238333 C3.23858333,29.4589167 7.55975,35.8856667 13.8260833,38.9299167 L4.86475,14.3779167 C3.79065892,16.7833921 3.23651993,19.3885326 3.23858333,22.0229167" id="Fill-1"></path>
                        <path d="M34.705,21.076 C34.705,18.7540833 33.8708333,17.14625 33.15675,15.895 C32.20525,14.34675 31.3115,13.03775 31.3115,11.4895 C31.3115,9.7625 32.6214167,8.15558333 34.4666667,8.15558333 C34.5491667,8.15558333 34.6289167,8.16475 34.7095833,8.17025 C31.249787,4.99253965 26.7214915,3.23213574 22.0238333,3.23858333 C15.4605,3.23858333 9.68733333,6.6055 6.32866667,11.7049167 C6.76866667,11.7195833 7.18483333,11.7278333 7.53683333,11.7278333 C9.50216667,11.7278333 12.5436667,11.4895 12.5436667,11.4895 C13.5565833,11.4299167 13.67575,12.9176667 12.6646667,13.03775 C12.6646667,13.03775 11.64625,13.1569167 10.5141667,13.2155833 L17.3543333,33.5646667 L21.4665,21.2355 L18.5395833,13.2155833 C17.5275833,13.156 16.56875,13.03775 16.56875,13.03775 C15.55675,12.97725 15.6759167,11.4299167 16.6879167,11.4885833 C16.6879167,11.4885833 19.7908333,11.7278333 21.6360833,11.7278333 C23.6005,11.7278333 26.6429167,11.4895 26.6429167,11.4895 C27.6558333,11.4299167 27.775,12.9176667 26.763,13.03775 C26.763,13.03775 25.7436667,13.1569167 24.6134167,13.2155833 L31.40225,33.40975 L33.2759167,27.1489167 C34.0871667,24.54925 34.7059167,22.6838333 34.7059167,21.076" id="Fill-3"></path>
                        <path d="M22.3538333,23.6665 L16.7163333,40.0455 C20.5010414,41.160959 24.5409336,41.0560809 28.2626667,39.74575 C28.210657,39.6634705 28.1655848,39.5770054 28.1279167,39.48725 L22.3538333,23.6665 Z" id="Fill-5"></path>
                        <path d="M38.5091667,13.0111667 C38.5889167,13.60975 38.63475,14.2514167 38.63475,14.9435 C38.63475,16.8483333 38.27725,18.9915 37.2065833,21.6718333 L31.46825,38.26075 C37.0535,35.00475 40.8090833,28.9538333 40.8090833,22.0238333 C40.8090833,18.75775 39.9749167,15.6869167 38.50825,13.0111667" id="Fill-7"></path>
                        <path d="M22.0238333,42.9183333 C10.5031667,42.9183333 1.13025,33.5445 1.13025,22.0238333 C1.13025,10.5031667 10.5031667,1.13025 22.0238333,1.13025 C33.5454167,1.13025 42.9183333,10.5031667 42.9183333,22.0238333 C42.9183333,33.5445 33.5454167,42.9183333 22.0238333,42.9183333 M22.0238333,0.124666667 C9.9495,0.125583333 0.125583333,9.94858333 0.125583333,22.0238333 C0.125583333,34.0990833 9.9495,43.923 22.02475,43.923 C34.0990833,43.923 43.923,34.0990833 43.923,22.0238333 C43.923,9.94858333 34.0990833,0.125583333 22.0238333,0.125583333" id="Fill-9"></path>
                    </g>
                </g>
            </g>
        </g>
    </g>
</svg>
